X:1
T:James Gibb editions
T:Psalm 29 (Becker) - Schütz
%%score [ ( 1 2 ) ( 3 4 ) ]
L:1/8
Q:1/4=120
M:3/4
K:F
V:1 treble nm="Soprano Alto"
V:2 treble 
V:3 bass nm="Tenor Bass"
V:4 bass 
V:1
"^Cornelius Becker\n(1561-1604)""^Psalm 29, SWV 126""^Heinrich Schütz\n(1585-1672)" A2 | c4 d2 | %2
w: ||
 c4 B2 | A6 | F4 G2 | B4 A2 | G4 F2 | E2 D4 | C4 :| C2 | F4 G2 | A4 c2 | B6 | A4 f2 | d4 d2 | %15
w: |||||||Sein|heil- gen|Nam'n zu|eh-|ren, bringt|her Stärk|
 _e4 c2 | B6- | B4 d2 | c4 A2 | c4 G2 | B6 | A4 || G2 | A4 c2 | c4 =B2 | c6- | c4 G2 | A4 G2 | %28
w: all- zu-|gleich,|* bet't|an mit|Furcht den|Her-|ren,|||||||
 F4 E2 | D6 | C4 C2 | F4 F2 | G4 G2 | A6- | A4 || c2 | d4 c2 | B4 B2 | A6 | F4 B2 | A4 G2 | %41
w: |||||||||||||
 G4 ^F2 | G4 A2 | G4 F2 | F4 E2 | F6- | F4 |] %47
w: ||||||
V:2
 C2 | F4 F2 | F4 D2 | F6 | D4 _E2 | (G2 F2) F2 | (D2 _E2) D2 | C2 =B,4 | C4 :| E2 | D4 D2 | F4 E2 | %12
w: ~Bringt|Ehr und|Preis dem|Her-|ren, ihr|G'wal\- * ti-|gen * in|al- ler|Welt.||||
w: Sein|Lob tut|hoch ver-|meh-|ren im|rei\- * nen|Dienst, * der|ihm ge-|fällt.||||
 D6 | C4 D2 | D4 D2 | G4 F2 | F6- | F4 F2 | F4 C2 | _E4 !courtesy!_E2 | D6 | D4 || D2 | F4 E2 | %24
w: ||||||||||dient|ihm in|
w: ||||||||||||
 (G2 F2) D2 | E6- | E4 E2 | F4 E2 | D4 C2 | B,6 | A,4 A,2 | (D2 C2) F2 | D4 C2 | C6- | C4 || F2 | %36
w: sei\- * nem|Reich,|* all|die ihr|lebt auf|Er-|den, gebt|Folg * dem|heil- gen|Wort,||laßt|
w: ||||||||||||
 F4 E2 | F4 G2 | F6 | D4 G2 | (F2 E2) D2 | (_E2 B,2) D2 | D4 F2 | (E2 D2) C2 | (D2 A,2) C2 | C6- | %46
w: Chri- sti|Ruhm kund|wer-|den durch|euch * an|al\- * lem|Ort, durch|euch * an|al\- * lem|Ort.|
w: ||||||||||
 C4 |] %47
w: |
w: |
V:3
 F,2 | A,4 B,2 | A,4 B,2 | C6 | B,4 B,2 | (_E2 D2) C2 | B,4 B,2 | G,2 G,4 | G,4 :| G,2 | B,4 B,2 | %11
 A,4 A,2 | F,6 | F,4 A,2 | (B,2 D2) B,2 | B,4 A,2 | B,6- | B,4 B,2 | A,4 F,2 | G,4 G,2 | G,6 | %21
 ^F,4 || B,2 | (C2 D2) C2 | (G,2 A,2) G,2 | G,6- | G,4 C2 | C4 C2 | A,4 A,2 | F,6 | F,4 F,2 | %31
 A,4 F,2 | F,4 E,2 | F,6- | F,4 || %35
"^2. Des Herren Stimm mit Kräften erregt, hält auf das wütend Meer,\nrieht aus des Herrn Geschäfte, der Gott der Ehren donnert sehr,\nauf Meer und Wassern brauset mit Macht des Herren Stimm\nund wie der Sturmwind sauset im Wald mit Ungestüm,\nvom Grund heraus sie reißet die Cedern Libanon\nund ihre Äst zerschmeißet, daß im Feld stäubt davon.\n\n4. In Gottes Kirch und Gmeine sagt jedermann ihm Lob und Ehr,\nda seins Wort Kraft alleine zur Seligkeit wird angehört.\nDer Herr sitzt anzurichten ein Sündflut reich von Gnad,\nins kräftig Wort er flichtet das selig Wasserbad.\nDer Herr wird König bleiben immer und ewiglich,\nsein Volk mit Fried und Freuden er segnet mildiglich." A,2 | %36
 B,4 G,2 | D4 G,2 | C6 | B,4 D2 | (D2 C2) B,2 | G,4 A,2 | =B,4 C2 | C2 (B,2 A,2) | F,4 G,2 | A,6- | %46
 A,4 |] %47
V:4
 F,2 | F,4 B,,2 | F,4 G,2 | F,6 | B,,4 _E,2 | (_E,2 B,,2) F,2 | (G,2 _E,2) B,,2 | C,2 G,,4 | C,4 :| %9
 C,2 | B,,4 G,,2 | D,4 A,,2 | B,,6 | F,4 D,2 | (G,2 B,2) G,2 | _E,2 C,2 F,2 | B,,6- | B,,4 B,,2 | %18
 F,4 F,2 | C,4 C,2 | G,,6 | D,4 || G,2 | (F,2 D,2) A,2 | (E,2 F,2) G,2 | C,6- | C,4 C,2 | F,4 C,2 | %28
 D,4 A,,2 | B,,6 | F,,4 F,2 | (D,2 F,2) D,2 | (B,,2 G,,2) C,2 | F,,6- | F,,4 || F,2 | B,,4 C,2 | %37
 D,4 _E,2 | F,6 | B,,4 G,,2 | (D,2 A,,2) B,,2 | (C,2 _E,2) D,2 | G,,4 F,,2 | (C,2 G,,2) A,,2 | %44
 (B,,2 D,2) C,2 | F,,6- | F,,4 |] %47

